products/org.csstudio.iter.css.product/SymbolLibrary_full_hd/SVG/Fluid/Valves/VR Relief Valve 4.svg

<?xml version="1.0" encoding="UTF-8" standalone="no"?>
<!--
/*******************************************************************************
* Copyright (c) 2010-2017 ITER Organization. 
* All rights reserved. This program and the accompanying materials
* are made available under the terms of the Eclipse Public License v1.0
* which accompanies this distribution, and is available at
* http://www.eclipse.org/legal/epl-v10.html
******************************************************************************/
-->
<svg
   xmlns:dc="http://purl.org/dc/elements/1.1/"
   xmlns:cc="http://creativecommons.org/ns#"
   xmlns:rdf="http://www.w3.org/1999/02/22-rdf-syntax-ns#"
   xmlns:svg="http://www.w3.org/2000/svg"
   xmlns="http://www.w3.org/2000/svg"
   id="svg2"
   version="1.1"
   viewBox="0 0 50 50"
   height="50pt"
   width="50pt">
  <metadata
     id="metadata23">
    <rdf:RDF>
      <cc:Work
         rdf:about="">
        <dc:format>image/svg+xml</dc:format>
        <dc:type
           rdf:resource="http://purl.org/dc/dcmitype/StillImage" />
        <dc:title></dc:title>
      </cc:Work>
    </rdf:RDF>
  </metadata>
  <defs
     id="defs21" />
  <g
     id="surface1">
    <path
       id="path5"
       d="M 1.347656 1.347656 L 1.375 1.347656 L 1.375 1.375 L 1.347656 1.375 Z "
       style=" stroke:none;fill-rule:evenodd;fill:rgb(100%,100%,100%);fill-opacity:1;" />
    <path
       id="path7"
       d="M 48.964844 48.964844 L 48.992188 48.964844 L 48.992188 48.992188 L 48.964844 48.992188 Z "
       style=" stroke:none;fill-rule:evenodd;fill:rgb(100%,100%,100%);fill-opacity:1;" />
    <path
       id="path9"
       d="m 9.1152302,33.339852 0,-15.87891 31.7695398,15.87891 0,-15.87891 z"
       style="fill:#ffffff;fill-opacity:1;fill-rule:evenodd;stroke:#000000;stroke-width:1.34592223;stroke-linecap:round;stroke-linejoin:round;stroke-miterlimit:3;stroke-opacity:1" />
    <path
       id="path11"
       d="M 0.67187536,25 9.1953153,25"
       style="fill:none;stroke:#000000;stroke-width:1.34592223;stroke-linecap:round;stroke-linejoin:round;stroke-miterlimit:3;stroke-opacity:1" />
    <path
       id="path13"
       d="m 41.605479,25 8.52344,0"
       style="fill:none;stroke:#000000;stroke-width:1.34592223;stroke-linecap:round;stroke-linejoin:round;stroke-miterlimit:3;stroke-opacity:1" />
    <path
       id="path15"
       d="m 24.990234,0.60546202 0,3.56640478 7.16406,3.5781234 -14.308588,7.1445278 7.144528,3.58203 0,6.503904"
       style="fill:none;stroke:#000000;stroke-width:1.21032536;stroke-linecap:round;stroke-linejoin:round;stroke-miterlimit:3;stroke-opacity:1" />
    <path
       id="path17"
       transform="matrix(0.996094,0,0,0.996094,0,0)"
       d="M 9.545098 17.517647 L 9.545098 33.454902 M 9.545098 33.454902 L 25.482353 25.486275 L 9.545098 17.517647 "
       style="fill-rule:evenodd;fill:rgb(65.098039%,65.098039%,65.098039%);fill-opacity:1;stroke-width:1.3504;stroke-linecap:round;stroke-linejoin:round;stroke:rgb(0%,0%,0%);stroke-opacity:1;stroke-miterlimit:3.285714;" />
  </g>
</svg>

<?xml version="1.0" encoding="UTF-8"?>
<!--
/*******************************************************************************
* Copyright (c) 2010-2018 ITER Organization.
* All rights reserved. This program and the accompanying materials
* are made available under the terms of the Eclipse Public License v1.0
* which accompanies this distribution, and is available at
* http://www.eclipse.org/legal/epl-v10.html
******************************************************************************/
-->
<svg xmlns="http://www.w3.org/2000/svg" xmlns:xlink="http://www.w3.org/1999/xlink" width="29pt" height="29pt" viewBox="0 0 29 29" version="1.1">
<g id="surface0">
<path style=" stroke:none;fill-rule:evenodd;fill:rgb(100%,100%,100%);fill-opacity:1;" d="M 0.777344 0.777344 L 0.792969 0.777344 L 0.792969 0.792969 L 0.777344 0.792969 Z M 0.777344 0.777344 "/>
<path style=" stroke:none;fill-rule:evenodd;fill:rgb(100%,100%,100%);fill-opacity:1;" d="M 28.175781 28.175781 L 28.191406 28.175781 L 28.191406 28.191406 L 28.175781 28.191406 Z M 28.175781 28.175781 "/>
<path style="fill-rule:evenodd;fill:rgb(100%,100%,100%);fill-opacity:1;stroke-width:1.345922;stroke-linecap:round;stroke-linejoin:round;stroke:rgb(0%,0%,0%);stroke-opacity:1;stroke-miterlimit:3;" d="M 9.117349 33.339763 L 9.117349 17.460776 L 40.882112 33.339763 L 40.882112 17.460776 Z M 9.117349 33.339763 " transform="matrix(0.575397,0,0,0.575397,0,0)"/>
<path style="fill:none;stroke-width:1.345922;stroke-linecap:round;stroke-linejoin:round;stroke:rgb(0%,0%,0%);stroke-opacity:1;stroke-miterlimit:3;" d="M 0.672091 25.003125 L 9.192026 25.003125 " transform="matrix(0.575397,0,0,0.575397,0,0)"/>
<path style="fill:none;stroke-width:1.345922;stroke-linecap:round;stroke-linejoin:round;stroke:rgb(0%,0%,0%);stroke-opacity:1;stroke-miterlimit:3;" d="M 41.608513 25.003125 L 50.128448 25.003125 " transform="matrix(0.575397,0,0,0.575397,0,0)"/>
<path style="fill:none;stroke-width:1.210325;stroke-linecap:round;stroke-linejoin:round;stroke:rgb(0%,0%,0%);stroke-opacity:1;stroke-miterlimit:3;" d="M 24.989547 0.604203 L 24.989547 4.175108 L 32.151724 7.752802 L 17.847737 14.894612 L 24.989547 18.479095 L 24.989547 24.982759 " transform="matrix(0.575397,0,0,0.575397,0,0)"/>
<path style="fill-rule:evenodd;fill:rgb(65.098039%,65.098039%,65.098039%);fill-opacity:1;stroke-width:1.3504;stroke-linecap:round;stroke-linejoin:round;stroke:rgb(0%,0%,0%);stroke-opacity:1;stroke-miterlimit:3.285714;" d="M 9.548395 17.515614 L 9.548395 33.456868 M 9.548395 33.456868 L 25.482833 25.489649 L 9.548395 17.515614 " transform="matrix(0.573149,0,0,0.573149,0,0)"/>
</g>
</svg>
